X:12
T:12. The Ephemeral Emperor
M:2/4
L:1/16
Q:1/4=90
Z:Peter Dunk, VMP, 2011
K:A
a2>e2 cAec | dcBA GBBe | a2>e2 cAec | GABc A2A2 :: A,CEA cAec | BGEc BGE z |!
A,CEA cAec | dBGB A2A2 :: ecag fedc | BGEc BGE z | A,CEA EAcA | dBeG A2A2 :|!

